X:11007
T:Killarney Boys of Pleasure
R:Reel
C:Trad.
O:Ireland
M:4/4
L:1/8
Q:1/8=240
K:EDor
D|"Em"E2 (3FED E2 FA|"Bm"BFAF DEFA|"Em"B2 Bd "C"e2 ed|"Bm"BdAF DEFD|
"Em"E2 (3FED E2 FA|"Bm"BFAF DEFA|"Em"B2 Bd "C"e2 ed|"Bm"BdAF "D"FEE:|
|:e|"Em"Bee2 Befe|"D"BdAF "D"DEFA|"Bm"f2 (3gfe f2 fe|"D"dBAF DEFA|
"Em"Bee2 Befe|"D"BdAF DEFA|"Bm"f2 (3gfe defe|"D"dBAF "Em"E3:|

